hosted_logos/unity_technologies.svg

<?xml version="1.0" encoding="UTF-8"?>
<svg width="1402px" height="512px" viewBox="0 0 1402 512" version="1.1" xmlns="http://www.w3.org/2000/svg" xmlns:xlink="http://www.w3.org/1999/xlink">
    <!-- Generator: Sketch 64 (93537) - https://sketch.com -->
    <title>Unity-Logo-Black</title>
    <desc>Created with Sketch.</desc>
    <g id="Unity-Logo-Black" stroke="none" stroke-width="1" fill="none" fill-rule="evenodd">
        <path d="M454.009018,4.49163636 L247.575273,58.2842182 L217.027491,110.713018 L155.028945,110.261527 L3.92378182,257.214836 L155.028945,404.135564 L216.994909,403.684073 L247.612509,456.080291 L454.009018,509.872873 L509.305018,309.192145 L477.886836,257.214836 L509.305018,205.237527 L454.009018,4.49163636 Z M221.998545,119.151709 L379.908655,79.6811636 L289.261382,232.387491 L107.943564,232.387491 L221.998545,119.151709 Z M221.998545,395.240727 L107.943564,282.0096 L289.261382,282.0096 L379.908655,434.711273 L221.998545,395.240727 Z M424.098909,409.888582 L333.419055,257.214836 L424.098909,104.475927 L467.884218,257.214836 L424.098909,409.888582 L424.098909,409.888582 Z" id="Fill-1" fill="#0A0B09"></path>
        <path d="M922.256291,153.390545 C894.6688,153.390545 876.153018,164.817455 862.356945,186.493673 L861.174691,186.493673 L861.174691,158.906182 L812.897745,158.906182 L812.897745,361.057745 L862.356945,361.057745 L862.356945,246.383709 C862.356945,218.800873 879.695127,199.889455 903.340218,199.889455 C925.7984,199.889455 942.5408,213.206109 942.5408,236.930327 L942.5408,361.057745 L992,361.057745 L992,229.050182 C992,184.911127 964.021527,153.390545 922.256291,153.390545" id="Fill-2" fill="#0A0B09"></path>
        <path d="M737.661673,275.456 C737.661673,302.252218 722.292364,321.163636 697.074036,321.163636 C674.215564,321.163636 659.842327,308.158836 659.842327,284.5184 L659.842327,158.813091 L610.383127,158.813091 L610.383127,293.576145 C610.383127,337.7152 635.5968,366.480291 680.522473,366.480291 C708.891927,366.480291 724.656873,355.84 738.448291,337.324218 L739.630545,337.324218 L739.630545,360.964655 L787.176727,360.964655 L787.176727,158.813091 L737.661673,158.813091 L737.661673,275.456" id="Fill-3" fill="#0A0B09"></path>
        <polygon id="Fill-4" fill="#0A0B09" points="1017.93047 361.057745 1067.39433 361.057745 1067.39433 158.906182 1017.93047 158.906182"></polygon>
        <polygon id="Fill-5" fill="#0A0B09" points="1017.93047 136.489891 1067.39433 136.489891 1067.39433 95.8557091 1017.93047 95.8557091"></polygon>
        <path d="M1346.93236,158.906182 L1317.54356,249.930473 C1311.24131,268.450909 1305.72567,294.069527 1305.72567,294.069527 L1304.4736,294.069527 C1304.4736,294.069527 1297.77105,268.450909 1291.46415,249.930473 L1258.27724,158.906182 L1205.4016,158.906182 L1259.78531,302.736291 C1271.20756,333.470255 1275.14531,346.475055 1275.14531,357.510982 C1275.14531,374.057891 1266.47855,385.093818 1245.20262,385.093818 L1226.28655,385.093818 L1226.28655,427.259345 L1257.80713,427.259345 C1298.7904,427.259345 1313.01935,411.098764 1328.38865,366.177745 L1399.66836,158.906182 L1346.93236,158.906182" id="Fill-6" fill="#0A0B09"></path>
        <path d="M1159.54967,301.554036 L1159.54967,194.373818 L1191.07025,194.373818 L1191.07025,158.906182 L1159.54967,158.906182 L1159.54967,95.8557091 L1110.4256,95.8557091 L1110.4256,158.906182 L1082.45178,158.906182 L1082.45178,194.373818 L1110.4256,194.373818 L1110.4256,312.980945 C1110.4256,351.208727 1139.19535,361.448727 1165.20495,361.448727 C1186.48087,361.448727 1192.25251,360.662109 1192.25251,360.662109 L1192.25251,321.582545 C1192.25251,321.582545 1186.34124,321.652364 1179.64335,321.652364 C1167.8208,321.652364 1159.54967,316.527709 1159.54967,301.554036" id="Fill-7" fill="#0A0B09"></path>
    </g>
</svg>

<svg xmlns="http://www.w3.org/2000/svg" role="img" viewBox="-23.90 -23.90 1450.80 560.80"><title>Unity Technologies</title><path d="M454.00902 4.49164L247.57527 58.28422l-30.54778 52.4288-61.99855-.4515L3.92378 257.21485l151.10516 146.92072 61.96597-.45149 30.6176 52.39622 206.3965 53.79258 55.296-200.68072-31.41817-51.97731 31.41818-51.97731-55.296-200.7459zM221.99854 119.1517l157.91012-39.47055-90.64728 152.70633H107.94356l114.05499-113.23578zm0 276.08902L107.94357 282.0096h181.31782l90.64728 152.70167-157.91011-39.47054zm202.10037 14.64785l-90.67985-152.67374 90.67985-152.73891 43.7853 152.7389-43.7853 152.67375zm498.15738-256.49803c-27.58749 0-46.10327 11.4269-59.89935 33.10312h-1.18225v-27.58749h-48.27695v202.15157h49.4592V246.3837c0-27.58284 17.33819-46.49426 40.98328-46.49426 22.45818 0 39.20058 13.31666 39.20058 37.04088v124.12742H992V229.05018c0-44.13905-27.97847-75.65964-69.7437-75.65964M737.66166 275.456c0 26.79622-15.3693 45.70764-40.58763 45.70764-22.85848 0-37.23171-13.0048-37.23171-36.64524V158.8131h-49.4592v134.76305c0 44.13905 25.21367 72.90414 70.13934 72.90414 28.36946 0 44.1344-10.64029 57.92582-29.15607h1.18225v23.64043h47.54619V158.8131h-49.51506V275.456M1017.93 361.058h49.464V158.906h-49.464zm0-224.568h49.464V95.856h-49.464zm329.00236 22.41618l-29.3888 91.0243c-6.30225 18.52043-11.81789 44.13905-11.81789 44.13905h-1.25207s-6.70255-25.61862-13.00945-44.13906l-33.18691-91.02429h-52.87564l54.38371 143.83011c11.42225 30.73397 15.36 43.73877 15.36 54.7747 0 16.5469-8.66676 27.58283-29.94269 27.58283h-18.91607v42.16553h31.52058c40.98327 0 55.21222-16.16059 70.58152-61.0816l71.27971-207.27157h-52.736m-187.38269 142.64786V194.37382h31.52058v-35.46764h-31.52058V95.85571h-49.12407v63.05047h-27.97382v35.46764h27.97382v118.60713c0 38.22778 28.76975 48.46778 54.77935 48.46778 21.27592 0 27.04756-.78662 27.04756-.78662v-39.07957s-5.91127.06982-12.60916.06982c-11.82255 0-20.09368-5.12465-20.09368-20.09832" fill="#0A0B09" fill-rule="evenodd"/></svg>
